icons/Buildings/building-fill.svg

<svg viewBox="0 0 24 24" xmlns="http://www.w3.org/2000/svg"><path d="M21 19H23V21H1V19H3V4C3 3.44772 3.44772 3 4 3H14C14.5523 3 15 3.44772 15 4V19H17V9H20C20.5523 9 21 9.44772 21 10V19ZM7 11V13H11V11H7ZM7 7V9H11V7H7Z"/></svg>

<svg xmlns="http://www.w3.org/2000/svg" viewBox="0 0 24 24">
    <g>
        <path fill="none" d="M0 0h24v24H0z"/>
        <path d="M21 19h2v2H1v-2h2V4a1 1 0 0 1 1-1h10a1 1 0 0 1 1 1v15h2V9h3a1 1 0 0 1 1 1v9zM7 11v2h4v-2H7zm0-4v2h4V7H7z"/>
    </g>
</svg>
